X:91
M:C
L:1/8
Q:1/4=100
K:E_
E|G2 e>c (Bc) G>E|G<B e>c B>G F>E|G2 e>c (Bc) G>c|B>DE>G F>E E:|
g>fe>d c>B G2|g>fe>c B>G F2|G>BF>E F<G e>d|c>B(GB) F>E E||

